X: 57
T:Jig Pultague
M:9/8
L:1/8
Q:130
S:Mary Richards' (1787-1877) Collection
R:Slip Jig
A:Wales
Z:brian_martin12345@yahoo.com
K:Am
G2G GFE GFE|G2G GFE ABc|G2G GFE GFE|ABAA2^G ABc:||!
c2d ecA dBG|c2d ecA efg|c2d ecA dBG|ABAA2^G ABc:||!
EGE cGE cGE|EGE cGE ABc|EGE cGE cGE|ABA dB^G ABc:||!
